fs/target_edit_24_regular.svg

<svg viewBox="0 0 24 24" fill="none" xmlns="http://www.w3.org/2000/svg" height="1em" width="1em">
  <path d="M11.9994 13.9999C13.1036 13.9999 13.9988 13.1046 13.9988 12.0003C13.9988 10.8959 13.1036 10.0006 11.9994 10.0006C10.8951 10.0006 9.99992 10.8959 9.99992 12.0003C9.99992 13.1046 10.8951 13.9999 11.9994 13.9999ZM6.001 12.0003C6.001 8.68717 8.68656 6.00137 11.9994 6.00137C15.3122 6.00137 17.9978 8.68717 17.9978 12.0003C17.9978 12.1238 17.994 12.2465 17.9867 12.3682L15.3276 15.0275C16.0548 14.2283 16.4982 13.166 16.4982 12.0003C16.4982 9.51544 14.484 7.50109 11.9994 7.50109C9.51477 7.50109 7.50059 9.51544 7.50059 12.0003C7.50059 14.4851 9.51477 16.4994 11.9994 16.4994C13.165 16.4994 14.2272 16.0561 15.0263 15.3287L12.4913 17.864C12.451 17.9043 12.4116 17.9456 12.3732 17.9877C12.2496 17.9953 12.1249 17.9992 11.9994 17.9992C8.68656 17.9992 6.001 15.3134 6.001 12.0003ZM11.9994 3.49972C16.3594 3.49972 19.9526 6.78272 20.4423 11.0117C20.9593 10.9689 21.4844 11.0481 21.971 11.2492C21.587 6.07702 17.2693 2 11.9994 2C6.47688 2 2 6.47727 2 12.0003C2 17.1862 5.9471 21.4501 11.0007 21.9513C10.9981 21.7736 11.0185 21.5909 11.0647 21.4061L11.2981 20.4723C6.93187 20.1157 3.4996 16.4588 3.4996 12.0003C3.4996 7.30554 7.30509 3.49972 11.9994 3.49972ZM19.0991 12.6696L13.1983 18.5709C12.8543 18.915 12.6102 19.3461 12.4922 19.8182L12.0346 21.6486C11.8357 22.4445 12.5566 23.1656 13.3525 22.9666L15.1827 22.509C15.6548 22.391 16.0858 22.1469 16.4299 21.8028L22.3307 15.9014C23.2231 15.009 23.2231 13.5621 22.3307 12.6696C21.4383 11.7772 19.9915 11.7772 19.0991 12.6696Z" fill="#212121"/>
</svg>

<svg viewBox="0 0 24 24" fill="none" xmlns="http://www.w3.org/2000/svg" height="1em" width="1em">
  <path d="M12 14a2 2 0 1 0 0-4 2 2 0 0 0 0 4Zm-6-2a5.999 5.999 0 1 1 11.986.368l-2.66 2.66a4.499 4.499 0 1 0-.301.301l-2.535 2.535c-.04.04-.08.082-.118.124A5.999 5.999 0 0 1 6.001 12Zm5.998-8.5a8.501 8.501 0 0 1 8.443 7.512 3.293 3.293 0 0 1 1.529.237C21.587 6.077 17.269 2 11.999 2 6.477 2 2 6.477 2 12c0 5.186 3.947 9.45 9 9.951-.002-.177.018-.36.065-.545l.233-.934A8.501 8.501 0 0 1 12 3.5Zm7.1 9.17-5.9 5.9a2.685 2.685 0 0 0-.707 1.248l-.457 1.83a1.087 1.087 0 0 0 1.317 1.319l1.83-.458a2.684 2.684 0 0 0 1.248-.706l5.9-5.902a2.285 2.285 0 0 0-3.23-3.231Z" fill="#212121"/>
</svg>
